X:1

T:Baron o’ Brackley, The

M:2/4

L:1/8

R:Quickstep

C:J. Scott Skinner

S:Skinner – Harp and Claymore  (1904)

Z:AK/Fiddler’s Companion

K:A Mix

A/B/ | “tr”ce”trdf | e/c/A/c/ “tr”eA/B/ | “tr”ced”tr”g | d/B/G/B/ “tr”de/d/ | “tr”ced”tr”f | e/c/A/c/ “tr”ef/g/ |

a/g/f/e/ g/G/B/d/ | ({d}e(AA) :: (e/f/g) | ag/f/ ({f}”tr”g)f | e/cA/C/ ef/g/ | ag/f/ e”tr”g | d/B/G/B/ d(e/f/g/ |

ag/f/ ({f}g)f | e/c/A/a/ “tr”ef/g/ | a/g/f/e/ g/G/B/d/ | ({d}e)(AA) :|

 

BARONY JIG [1], THE.  AKA and see "The Fisherman's Jig," "The Green Gates [2]," "Redican's Mother," "Trealock Lauder." Irish, Hop or Slip Jig (9/8 time). D Major. Standard tuning. AABB. Roche Collection, 1982, vol. II; No. 260, pg. 26.

 

BARONY JIG [2], THE (Port An Baruntact). Irish, Long Dance (9/8 time). A Minor. Standard tuning. AABB. No apparent relationship to Roche's "Barony Jig" [1]. Carlin (English Concertina), 1977; pg. 51. O'Neill (Dance Music of Ireland: 1001 Gems), 1907/1986; No. 970, pg. 166.

